X:1
T:The Prodigal Child
T:The Prodigal Child
T:William Howard Doane
T:Ellen Maria Huntington Gates, 1875
T:Public Domain Courtesy of the Cyber Hymnal™
C:William Howard Doane
Z:Public Domain
Z:Courtesy of the Cyber Hymnal™
%%score ( 1 2 ) ( 3 4 )
L:1/8
Q:1/4=113
M:4/4
K:Eb
V:1 treble 
V:2 treble 
V:3 bass 
V:4 bass 
V:1
 [EB]2 | (B4 G2) [EG]2 | ([EG]4 [B,E]2) [EB][EB] | [Ec]4 [EB]2 [EG]2 | [DF]6 [DF][DF] | %5
w: 1.~Come|home! * come|home! * You are|wea- ry at|heart, For the|
w: 2.~Come|home! * come|home! * For we|watch and we|wait, And we|
w: 3.~Come|home! * come|home! * From the|sor- row and|blame, From the|
w: 4.~Come|home! * come|home! * There is|bread and to|spare, And a|
 [DF]4 [EG]2 [FA]2 | (G4 B2) [EG]E | [DF]4 [EG]2 [FA]2 | (G4 B2) z2 | [Ec]4 [Ee]2- (3[Ee][Ed][Ec] | %10
w: way has been|dark, * And so|lone- ly and|wild. *|O pro- * di- gal|
w: stand at the|gate, * While the|sha- dows are|piled. *|O pro- * di- gal|
w: sin and the|shame, * And the|tempt- er that|smiled, *|O pro- * di- gal|
w: warm wel- come|there, * Then, to|friends re- con-|ciled, *|O pro- * di- gal|
 [EB]6 [EG]2 | [DF]4 [DB]2- (3[DB] ([DA][DF]) | E6 z2 ||"^Refrain" [EA]8 x6 | [EG]8 x6 | %15
w: child! Come|home! oh * come *|home!|||
w: child! Come|home! oh * come *|home!|Come|home!|
w: child! Come|home! oh * come *|home!|||
w: child! Come|home! oh * come *|home!|||
 [DB]4 [DA]2 [DF]2 | E6 x |] %17
w: ||
w: Come, oh come|home!|
w: ||
w: ||
V:2
 x2 | E6 x2 | x8 | x8 | x8 | x8 | E6 E x | x8 | E6 x2 | x8 | x8 | x8 | E6 x2 || x14 | x14 | x8 | %16
 (E3 C2 B,2) |] %17
V:3
 [E,G,]2 | (G,4 B,2) [E,B,]2 | (B,4 G,2) [E,G,][E,G,] | [E,A,]4 [E,G,]2 [E,B,]2 | %4
w: ~|~ * ~|~ * ~ ~|~ ~ ~|
 [B,,B,]6 [B,,B,][B,,B,] | [B,,B,]4 [B,,B,]2 [B,,B,]2 | (B,4 G,2) [E,B,][E,G,] | %7
w: ~ ~ ~|~ ~ ~|~ * ~ ~|
 [B,,B,]4 [B,,B,]2 [B,,B,]2 | (B,4 G,2) z2 | [A,,A,]4 [A,,C]2- (3[A,,C][A,,B,][A,,A,] | %10
w: ~ ~ ~|~ *|~ ~ * ~ ~|
 [E,G,]6 [E,B,]2 | [B,,B,]4 [B,,F,]2- [B,,F,][B,,A,] | [E,G,]6 z2 || z2 x12 | z2 x12 | %15
w: ~ ~|~ ~ * ~|~|||
 [B,,F,]4 [B,,F,]2 [B,,A,]2 | (G,2 !fermata!A,2 !fermata!G,2) x |] %17
w: Come home! Come|home! * *|
V:4
 x2 | E,6 x2 | E,6 x2 | x8 | x8 | x8 | E,6 x2 | x8 | E,6 x2 | x8 | x8 | x8 | x8 || C8 A,,2 A,,4 | %14
 B,8 E,2 E,4 | x8 | E,6 x |] %17

